X:1
T:Evelyn, 77.77
T:Evelyn, 77.77
T:Emma Louise Ashford, 1905
T:Public Domain Courtesy of the Cyber Hymnal™
C:Emma Louise Ashford, 1905
Z:Public Domain
Z:Courtesy of the Cyber Hymnal™
%%score ( 1 2 ) ( 3 4 )
L:1/8
Q:1/4=112
M:2/4
K:A
V:1 treble 
V:2 treble 
V:3 bass 
V:4 bass 
V:1
 [CA]2 [EG]2 | [DF]2 [DG]2 | [CA]2 [DB]2 | [CA]4 | [Dd]2 [Ed]2 | [Ec]2 (BA) | [EG]2 [^DF]2 | E4 | %8
 E2 [EA]2 | [DF]2 [FB]2 | [EG]2 [Gc]2 | [FA]4 | [^DB]2 [EB]2 | [Ee]2 (dB) | [EA]2 [EG]2 | [EA]4 |] %16
V:2
 x4 | x4 | x4 | x4 | x4 | x2 F2 | x4 | E4 | E2 x2 | x4 | x4 | x4 | x4 | x2 F2 | x4 | x4 |] %16
V:3
 [A,,A,]2 A,2 | [D,A,]2 [B,,B,]2 | [F,A,]2 [E,G,]2 | A,4 | [F,A,]2 [G,B,]2 | A,2 [A,,C]2 | %6
 [B,,B,]2 (B,A,) | G,4 | [C,A,]2 [A,,C]2 | [D,A,]2 [B,,D]2 | [E,B,]2 [C,E]2 | [F,C]4 | (B,A,) G,2 | %13
 [C,A,]2 (A,D) | [E,C]2 (B,D) | [A,,C]4 |] %16
V:4
 x2 (B,,C,) | x4 | x4 | A,4 | x4 | A,2 x2 | x2 B,,2 | E,2 D,2 | x4 | x4 | x4 | x4 | F,2 (E,D,) | %13
 x2 D,2 | x2 E,2 | x4 |] %16

